X:62
T:Flowers of Phosphorus
M:4/4
C:© Paul Gitlitz 2008
R:march
K:G
E2|"G"D4 DEGA |B4G4|"C"c2 {Bc}B2 A2G2|"D"F2{EF}E2D2DC| !
"G"B,3D DEGA |B4G4|"D"A2BA G2F2|"G"G6:|!
c2|"G"B2d2d2Bd |"C"c2B2A2D2|"G"G2d2c2{Bc}B2|"D"A2G2A3c|!
"G"B2d2d2Bd |"C"c2B2A2D2|"G"G2Bdg2b2|"D"a2f2 "G"g3c|!
"G"B2d2d2Bd |"C"c2B2A2D2|"G"G2d2c2B2|"D"A2G2A3D|!
"Em"E2DE "D"F2EF|"G"G2A2B2d2|"Em"edeg "D"a2f2|"G"g8|]
